apps/profe/src/routes/apps/calculadora-finiquitos/i.svg

<!--
asi:Itinerario Personal para la Empleabilidad
title:Calculadora de finiquitos
body:Calcula cuánto se debe pagar por una liquidación de contrato.
-->
<svg
    width="25"
    height="25"
    viewBox="0 0 90 100"
    fill="none"
    xmlns="http://www.w3.org/2000/svg"
>
    <path
        d="M63.2314 31.7028L61.3804 42.9747L0 59.4215L1.02465 48.3711L63.2314 31.7028ZM59.617 53.2882L57.3684 64.9127L5.21575 78.887L6.17889 67.6069L59.617 53.2882ZM68.4389 3.39225L65.3005 21.0613C63.8466 20.5324 62.1121 19.9967 60.097 19.4541C58.1042 18.8728 55.8964 18.5294 53.4735 18.4242C51.0731 18.2801 48.5262 18.5689 45.8328 19.2906C41.5786 20.4305 38.1623 22.494 35.584 25.4811C33.0056 28.4682 31.451 32.4603 30.9202 37.4575C30.42 42.4464 31.1212 48.4912 33.0238 55.5918C34.9428 62.7536 37.362 68.3544 40.2815 72.3942C43.2233 76.3953 46.5534 79.0294 50.2717 80.2965C53.9818 81.533 57.9639 81.5813 62.2182 80.4414C64.9115 79.7197 67.2657 78.7117 69.2807 77.4173C71.2957 76.1229 72.9983 74.7645 74.3886 73.3423C75.8095 71.9119 76.9755 70.6317 77.8865 69.502L89.5308 83.21C86.9328 86.8585 83.7106 89.9525 79.8642 92.4921C76.0097 95.0011 71.7104 96.8911 66.9665 98.1623C58.9477 100.311 51.3386 100.316 44.1393 98.1773C36.9624 96 30.6699 91.7978 25.2618 85.5709C19.8455 79.3134 15.776 71.104 13.0533 60.9428C10.3389 50.8122 9.75847 41.668 11.3122 33.5101C12.8658 25.3522 16.206 18.5361 21.3327 13.062C26.4818 7.54908 33.0658 3.7183 41.0846 1.56968C46.0121 0.249339 50.7692 -0.238044 55.3559 0.107526C59.9426 0.453101 64.3036 1.54801 68.4389 3.39225Z"
        fill="currentColor"
    />
</svg>

<!--
asi:Itinerario Personal para la Empleabilidad
title:Calculadora de finiquitos
body:Calcula cuánto se debe pagar por una liquidación de contrato.
-->
<svg xmlns="http://www.w3.org/2000/svg" width="25" height="25" fill="none" viewBox="0 0 90 100"><path fill="currentColor" d="m63.231 31.703-1.85 11.272L0 59.422l1.025-11.05zm-3.614 21.585-2.249 11.625L5.216 78.887l.963-11.28zm8.822-49.896L65.3 21.062q-2.181-.794-5.204-1.608-2.989-.872-6.623-1.03-3.6-.216-7.641.867-6.38 1.71-10.249 6.19-3.867 4.481-4.664 11.977-.75 7.482 2.104 18.134 2.878 10.743 7.258 16.802 4.412 6.002 9.99 7.902 5.565 1.855 11.946.145 4.04-1.082 7.063-3.024t5.108-4.075q2.13-2.145 3.498-3.84L89.53 83.21q-3.897 5.474-9.667 9.282-5.781 3.765-12.898 5.67-12.027 3.223-22.827.015-10.766-3.266-18.877-12.606-8.124-9.387-12.209-24.628-4.072-15.196-1.74-27.433 2.33-12.237 10.02-20.448 7.724-8.27 19.752-11.492 7.39-1.98 14.27-1.462 6.882.518 13.084 3.284"/></svg>
